X:13
T:Miss Watt
R:reel
O:Scottish
D:John Campbell, Cape Breton Violin Music (1975-2006)
Z:Paul Stewart Cranford (P.S.C.), <http://www.cranfordpub.com>
L:1/8
M:C|
Q:333
K:Bb
F|B2 dB FBDF|BdcB cCCA|B2 dB FBDg|fdcd B/B/B B:|
g|fBdB dfbg|fBdB c/c/c cg|fBdB dfbg|fdcd B/B/B Bg|
fBdB dfbg|fBdB c/c/c ca|bgeg fdBd|cBcd B/B/B B|]
